localPackages/DesignSystem/Sources/DesignSystem/Resources/Assets.xcassets/IconSet/ic-arrow-down.imageset/ic-arrow-down.svg

<svg width="24" height="24" viewBox="0 0 24 24" fill="none" xmlns="http://www.w3.org/2000/svg">
<g id="ic-arrow-down">
<path id="Icon" fill-rule="evenodd" clip-rule="evenodd" d="M11.9973 3.00293C12.4115 3.00293 12.7473 3.33872 12.7473 3.75293L12.7473 18.548L19.7152 11.5318C20.007 11.2379 20.4819 11.2362 20.7758 11.5281C21.0697 11.82 21.0714 12.2948 20.7795 12.5888L12.7409 20.6832C12.5772 20.848 12.3712 20.9475 12.1574 20.9806C12.1058 20.9918 12.0523 20.9977 11.9973 20.9977C11.9424 20.9977 11.8888 20.9918 11.8372 20.9806C11.6235 20.9475 11.4174 20.848 11.2538 20.6832L3.21515 12.5888C2.92327 12.2948 2.92492 11.82 3.21882 11.5281C3.51273 11.2362 3.9876 11.2379 4.27948 11.5318L11.2473 18.548L11.2473 3.75293C11.2473 3.33872 11.5831 3.00293 11.9973 3.00293Z" fill="#0F0F0F"/>
</g>
</svg>

<svg xmlns="http://www.w3.org/2000/svg" width="24" height="24" viewBox="0 0 24 24">
  <g class="ic-arrow-down">
    <path fill-rule="evenodd" d="M11.996 3.004a.75.75 0 0 1 .75.75v14.795l6.968-7.016a.75.75 0 1 1 1.064 1.057l-8.038 8.094c-.164.165-.37.264-.584.298a.754.754 0 0 1-.32 0 1.047 1.047 0 0 1-.584-.298L3.214 12.59a.75.75 0 1 1 1.064-1.057l6.968 7.016V3.754a.75.75 0 0 1 .75-.75Z" class="Icon"/>
  </g>
</svg>
